X: 9
T: THE DAME OF HONOUR
B: "Old English Country Dances", Frank Kidson ed., William Reeves pub., London 1890
Z: 2010-9-26 John Chambers <jc:trillian.mit.edu>
M: 6/4
L: 1/8
K: Bb
B,2 |\
D4F2 B4d2 | B4F2 B4A2 | G3FED C4F2 | D2B,4- B,4B,2 |
D2E2F2 G4B2 | A3Bc2 G4c2 | c3dc2 G4B2 | A2F4- F4 :|
|: c2 |\
f4e2 d4c2 | B4A2 G4d2 | e3de2 G4B2 | A2F4- F4E2 |
D2E2F2 G4B2 | A3Bc2 F4e2 | d3ef2 F4e2 | d2B4- B4 |]


%%sep 1 1 500

%%sep 1 1 500

